material/.icons/material/axis-x-rotate-counterclockwise.svg

<svg xmlns="http://www.w3.org/2000/svg" viewBox="0 0 24 24"><path d="M12 14l4-4 4 4h-3.1c-.46 4.56-2.48 8-4.9 8-1.88 0-3.53-2.08-4.38-5.16l1.75-1.01C9.87 18.31 10.86 20 12 20c1.4 0 2.57-2.55 2.91-6H12M1.11 17.13l12.78-7.38.07.79L10.5 14h.04l-8.43 4.87-1-1.74m20.78-12l1 1.74-5.01 2.89c-.09-.73-.21-1.43-.38-2.1l4.39-2.53M12 2c2.3 0 4.23 3.1 4.82 7.32L16 8.5l-1.13 1.13C14.5 6.37 13.35 4 12 4c-1.58 0-2.88 3.27-3 7.42l-2 1.15V12C7 6.5 9.24 2 12 2z"/></svg>

<?xml version="1.0" encoding="UTF-8"?><!DOCTYPE svg PUBLIC "-//W3C//DTD SVG 1.1//EN" "http://www.w3.org/Graphics/SVG/1.1/DTD/svg11.dtd"><svg xmlns="http://www.w3.org/2000/svg" xmlns:xlink="http://www.w3.org/1999/xlink" version="1.1" id="mdi-axis-x-rotate-counterclockwise" width="24" height="24" viewBox="0 0 24 24"><path d="M12,14L16,10L20,14H16.9C16.44,18.56 14.42,22 12,22C10.12,22 8.47,19.92 7.62,16.84L9.37,15.83C9.87,18.31 10.86,20 12,20C13.4,20 14.57,17.45 14.91,14H12M1.11,17.13L13.89,9.75L13.96,10.54L10.5,14H10.54L2.11,18.87L1.11,17.13M21.89,5.13L22.89,6.87L17.88,9.76C17.79,9.03 17.67,8.33 17.5,7.66L21.89,5.13M12,2C14.3,2 16.23,5.1 16.82,9.32L16,8.5L14.87,9.63C14.5,6.37 13.35,4 12,4C10.42,4 9.12,7.27 9,11.42L7,12.57V12C7,6.5 9.24,2 12,2Z" /></svg>
